packages/kaspersky-hexa-ui-icons/src/iconsSVGs/48/FileThreat.svg

<svg width="48" height="48" viewBox="0 0 48 48" fill="none" xmlns="http://www.w3.org/2000/svg">
<path fill-rule="evenodd" clip-rule="evenodd" d="M35.41 0H5V48H43V7.59L35.41 0ZM36 3.41L39.59 7H36V3.41ZM7 46V2H34V9H41V46H7ZM32 22H27V13.31C26.9985 12.8331 26.6926 12.4104 26.24 12.26C25.7866 12.1094 25.288 12.2715 25.01 12.66L15.11 26.26C14.8606 26.5886 14.818 27.0298 15 27.4C15.1912 27.7748 15.5794 28.0077 16 28H21V36.69C21.0015 37.1669 21.3074 37.5896 21.76 37.74C21.8725 37.7594 21.9875 37.7594 22.1 37.74C22.4519 37.7425 22.7834 37.5749 22.99 37.29L32.89 23.69C33.1199 23.3728 33.1619 22.9567 33 22.6C32.8088 22.2252 32.4206 21.9923 32 22ZM23 33.93V27.1C23 26.8083 22.8841 26.5285 22.6778 26.3222C22.4715 26.1159 22.1917 26 21.9 26H17.77L25 16.07V22.9C25 23.1917 25.1159 23.4715 25.3222 23.6778C25.5285 23.8841 25.8083 24 26.1 24H30.23L23 33.93Z"  fill="currentColor"/>
</svg>

<svg xmlns="http://www.w3.org/2000/svg" width="48" height="48" fill="none" viewBox="0 0 48 48"><path fill="currentColor" fill-rule="evenodd" d="M35.41 0H5v48h38V7.59zM36 3.41 39.59 7H36zM7 46V2h27v7h7v37zm25-24h-5v-8.69a1.11 1.11 0 0 0-.76-1.05 1.09 1.09 0 0 0-1.23.4l-9.9 13.6A1.09 1.09 0 0 0 15 27.4a1.1 1.1 0 0 0 1 .6h5v8.69c.0015.4769.3074.8996.76 1.05.1125.0194.2275.0194.34 0a1.09 1.09 0 0 0 .89-.45l9.9-13.6A1.09 1.09 0 0 0 33 22.6a1.1 1.1 0 0 0-1-.6m-9 11.93V27.1a1.1 1.1 0 0 0-1.1-1.1h-4.13L25 16.07v6.83a1.1 1.1 0 0 0 1.1 1.1h4.13z" clip-rule="evenodd"/></svg>
